X: 07094
T: The PETERSON GIRLS
C: Bob McQuillen 19 Feb 89
B: Bob's Note Book 7 #94
%R: jig
Z: 2019 John Chambers <jc:trillian.mit.edu>
N: Either the pickup notes should 16th-notes, or the final Gs should be 8th-notes.
M: 6/8
L: 1/8
K: G
BA \
| GED GBd | edB dBA | GED GBd | edB A2B |\
| GED GBd | edB dBA | BGE GED | EGA G2 :|
|: Bd \
| edB deg | age dBA | GBd ede | dBG ABd |\
| edB deg | bge dBG | GBd gdB | AGE G2 :|
%%begintext align
%% Heather and Laurel
%% Peterson of Peterborough, N.H., have danced
%% for more years than I can remember, and
%% I thought it was about time they had their
%% own tune to dance to.  Don't you agree?
%%endtext

%%sep 1 1 500

%%sep 1 1 500

